X: 42295
T: Wedding
R: waltz
M: 3/4
K: Bminor
|:F2B2>c2|d2>f2 ed|c2>A2 dc|BA F2 FE|
F2B2>c2|d2f2d2|c2e2c2|1 B4 B2:|2 B2> c2d e||
f2> a2f e|d2> f2e d|c2> f2e c|d2 B4|
f2> a2f e|d2> f2e d|c2 A2c2|B2> c2d e|
f2> a2f e|d2> f2e d|c2> f2e c|d2 B2 BA|
F2 B2> c2|d2 f2> d2|c2 e2 c2|B4>||

